X: 125
T:Silent The Lonely Glen
R:Air
C:Ed Reavy
M:2/4
L:1/8
Z:Joe Reavy
S:Philippe Varlet  irtrad-l 2000-10-27
N:The tune laments the passing of the old ways and
N:the tradition as Ed remembers it: the old Ireland
N:he once knew.
K:G
g/f/ \
| ed/B/ AG/A/ | B/d^c/    dg/f/ | ed/B/ AG/A/ | B/>A/G/F/ Eg/f/ |
| ed/B/ ba/g/ | g/f/e/^d/ eg/f/ | ed/B/ AG/A/ | BG/E/     Ee/f/ |
| ge/g/ ba/g/ | fd/f/     ag/f/ | ge/g/ ba/g/ | f/e^d/    ee/f/ |
| ge/g/ fd/f/ | ed/B/     Bg/f/ | ed/B/ AG/A/ | BG/E/ E ||
% Original, probably damaged, version:
g/2f/2 \
| ed/B/ AG/A/ | B/d^c/ dg/f/ | ed/B/ AG/A/ | B/>A/G//F/ eg/f/ |
| ed/B/ ba/g/ | g/f/e/^d/ eg/B/ AF/A/ | BG/E/ Ee/f/ | ge/g/ ba/g/ |
| fd/f/ ag/f/ | ge/g/ ba/g/ | fd/f/ ag/f/ | ge/g/ ba/g/f/ed/ |
| ee/f/ ge/g/ | fd/f/ ed/B/ Bgf | ed/B/ AG/A/ | bG/E/E |]



